svg/business/safe_box_line.svg

<?xml version="1.0" encoding="UTF-8"?>
<svg width="24px" height="24px" viewBox="0 0 24 24" version="1.1" xmlns="http://www.w3.org/2000/svg" xmlns:xlink="http://www.w3.org/1999/xlink">
    <title>safe_box_line</title>
    <g id="页面-1" stroke="none" stroke-width="1" fill="none" fill-rule="evenodd">
        <g id="Business" transform="translate(-912.000000, -96.000000)">
            <g id="safe_box_line" transform="translate(912.000000, 96.000000)">
                <path d="M24,0 L24,24 L0,24 L0,0 L24,0 Z M12.5934901,23.257841 L12.5819402,23.2595131 L12.5108777,23.2950439 L12.4918791,23.2987469 L12.4918791,23.2987469 L12.4767152,23.2950439 L12.4056548,23.2595131 C12.3958229,23.2563662 12.3870493,23.2590235 12.3821421,23.2649074 L12.3780323,23.275831 L12.360941,23.7031097 L12.3658947,23.7234994 L12.3769048,23.7357139 L12.4804777,23.8096931 L12.4953491,23.8136134 L12.4953491,23.8136134 L12.5071152,23.8096931 L12.6106902,23.7357139 L12.6232938,23.7196733 L12.6232938,23.7196733 L12.6266527,23.7031097 L12.609561,23.275831 C12.6075724,23.2657013 12.6010112,23.2592993 12.5934901,23.257841 L12.5934901,23.257841 Z M12.8583906,23.1452862 L12.8445485,23.1473072 L12.6598443,23.2396597 L12.6498822,23.2499052 L12.6498822,23.2499052 L12.6471943,23.2611114 L12.6650943,23.6906389 L12.6699349,23.7034178 L12.6699349,23.7034178 L12.678386,23.7104931 L12.8793402,23.8032389 C12.8914285,23.8068999 12.9022333,23.8029875 12.9078286,23.7952264 L12.9118235,23.7811639 L12.8776777,23.1665331 C12.8752882,23.1545897 12.8674102,23.1470016 12.8583906,23.1452862 L12.8583906,23.1452862 Z M12.1430473,23.1473072 C12.1332178,23.1423925 12.1221763,23.1452606 12.1156365,23.1525954 L12.1099173,23.1665331 L12.0757714,23.7811639 C12.0751323,23.7926639 12.0828099,23.8018602 12.0926481,23.8045676 L12.108256,23.8032389 L12.3092106,23.7104931 L12.3186497,23.7024347 L12.3186497,23.7024347 L12.3225043,23.6906389 L12.340401,23.2611114 L12.337245,23.2485176 L12.337245,23.2485176 L12.3277531,23.2396597 L12.1430473,23.1473072 Z" id="MingCute" fill-rule="nonzero"></path>
                <path d="M20,3 C21.1046,3 22,3.89543 22,5 L22,18 C22,19.1046 21.1046,20 20,20 L19,20 C19,20.5523 18.5523,21 18,21 C17.4477,21 17,20.5523 17,20 L7,20 C7,20.5523 6.55228,21 6,21 C5.44772,21 5,20.5523 5,20 L4,20 C2.89543,20 2,19.1046 2,18 L2,5 C2,3.89543 2.89543,3 4,3 L20,3 Z M20,5 L4,5 L4,18 L20,18 L20,5 Z M12,7 C12.5523,7 13,7.44772 13,8 L13,8.12602 C14.7252,8.57006 16,10.1362 16,12 C16,12.3709 15.9495,12.7301 15.855,13.0709 L15.964,13.1339 C16.4423,13.41 16.6062,14.0216 16.3301,14.4999 C16.0539,14.9782 15.4423,15.142 14.964,14.8659 L14.8541,14.8025 C14.1283,15.5416 13.1177,16 12,16 C10.8823,16 9.87172,15.5416 9.14593,14.8026 L9.03581,14.8661 C8.55752,15.1423 7.94593,14.9784 7.66979,14.5001 C7.39364,14.0218 7.55752,13.4102 8.03581,13.1341 L8.14499,13.0711 C8.05049,12.7302 7.99998,12.371 7.99998,12 C7.99998,10.1362 9.27476,8.57006 11,8.12602 L11,8 C11,7.44772 11.4477,7 12,7 Z M12,10 C10.8954,10 9.99998,10.8954 9.99998,12 C9.99998,12.2984167 10.0653411,12.5815556 10.1824985,12.835875 L10.2759,13.0142 C10.6237,13.6042 11.2656,14 12,14 C12.6754154,14 13.2726959,13.6651361 13.6348506,13.1523991 L13.7447,12.9784 L13.7447,12.9784 C13.9073,12.6892 14,12.3554 14,12 C14,10.8954 13.1046,10 12,10 Z" id="形状" fill="#09244B"></path>
            </g>
        </g>
    </g>
</svg>

<svg xmlns="http://www.w3.org/2000/svg" width="24" height="24"><g fill="none" fill-rule="evenodd"><path d="M24 0v24H0V0zM12.593 23.258l-.011.002-.071.035-.02.004-.014-.004-.071-.035c-.01-.004-.019-.001-.024.005l-.004.01-.017.428.005.02.01.013.104.074.015.004.012-.004.104-.074.012-.016.004-.017-.017-.427c-.002-.01-.009-.017-.017-.018m.265-.113-.013.002-.185.093-.01.01-.003.011.018.43.005.012.008.007.201.093c.012.004.023 0 .029-.008l.004-.014-.034-.614c-.003-.012-.01-.02-.02-.022m-.715.002a.023.023 0 0 0-.027.006l-.006.014-.034.614c0 .012.007.02.017.024l.015-.002.201-.093.01-.008.004-.011.017-.43-.003-.012-.01-.01z"/><path fill="#09244B" d="M20 3a2 2 0 0 1 2 2v13a2 2 0 0 1-2 2h-1a1 1 0 1 1-2 0H7a1 1 0 1 1-2 0H4a2 2 0 0 1-2-2V5a2 2 0 0 1 2-2zm0 2H4v13h16zm-8 2a1 1 0 0 1 1 1v.126a4.002 4.002 0 0 1 2.855 4.945l.109.063a1 1 0 1 1-1 1.732l-.11-.063A3.988 3.988 0 0 1 12 16a3.988 3.988 0 0 1-2.854-1.197l-.11.063a1 1 0 1 1-1-1.732l.109-.063A4.004 4.004 0 0 1 11 8.126V8a1 1 0 0 1 1-1m0 3a2 2 0 0 0-1.818 2.836l.094.178a1.999 1.999 0 0 0 3.359.138l.11-.174A2 2 0 0 0 12 10"/></g></svg>
